X:65
T:Kiöntött a Maros vize a partjára
M:4/4
L:1/4
K:D
A/A/B/c/ d/B/A/G/ | F/A/ E D2 | 
f/f/e/d/ e d | B/c/ d A2 | 
f/f/e/d/ e d | B/c/ d A2 | 
A/A/B/c/ d/B/A/G/ | F/A/ E D2 | 

